icons/lines/money-send.svg

<svg xmlns="http://www.w3.org/2000/svg" width="24" height="24" viewBox="0 0 24 24" fill="none" stroke="currentColor" stroke-width="2" stroke-linecap="round" stroke-linejoin="round" >
  <path d="M9.5 13.75C9.5 14.72 10.25 15.5 11.17 15.5H13.05C13.85 15.5 14.5 14.82 14.5 13.97C14.5 13.06 14.1 12.73 13.51 12.52L10.5 11.47C9.91 11.26 9.51001 10.94 9.51001 10.02C9.51001 9.17999 10.16 8.48999 10.96 8.48999H12.84C13.76 8.48999 14.51 9.26999 14.51 10.24"/>
  <path d="M12 7.5V16.5"/>
  <path d="M22 12C22 17.52 17.52 22 12 22C6.48 22 2 17.52 2 12C2 6.48 6.48 2 12 2"/>
  <path d="M22 6V2H18"/>
  <path d="M17 7L22 2"/>
  </svg>

<svg xmlns="http://www.w3.org/2000/svg" width="24" height="24" viewBox="0 0 24 24" fill="none" stroke="currentColor" stroke-width="2" stroke-linecap="round" stroke-linejoin="round">
  <path d="M12 7.5v9" />
  <path d="m17 7 5-5" />
  <path d="M22 12A10 10 0 1 1 12 2" />
  <path d="M22 6V2h-4" />
  <path d="M9.5 13.75c0 .97.75 1.75 1.67 1.75h1.88c.8 0 1.45-.68 1.45-1.53 0-.91-.4-1.24-.99-1.45l-3.01-1.05c-.59-.21-.99-.53-.99-1.45 0-.84.65-1.53 1.45-1.53h1.88c.92 0 1.67.78 1.67 1.75" />
</svg>
